X: 1375
T: Muhayyer Etüd
C: Hasan Esen
O: Turkey
F: http://compmusic.upf.edu/node/140
N: muhayyer--etud--sofyan----hasan_esen
N: makam= muhayyer
N: form= etud
N: usul= sofyan = 4/4
M: 4/4
L: 1/16
K: C _2/4B ^3/4f  
Q: 1/4=60
%%MIDI tuningsystem comma53
d4 f2g2 a4 z4  | a2b2 a2g2 c'2ba a4  | \
w:   |   | 
a2b2 a2g2 g2f2 g2f2  | 
w:   | 
a2gf gffe e4 z4  | z4 f2g2 a4 a4  | c'2b2 a2g2 g2f2 e2d2  | 
w:   |   |   | 
d2e2 d2c2 d2c2 e2dc  | c12 z4  | z4 d2e2 e6a2  | \
w:   |   |   | 
g2f2 e2d2 c2B2 A4  | 
w:   | 
f2g2 a2b2 a2g2 g2f2  | g2f2 f2e2 e4 z4  | \
w:   |   | 
e2d2 d2c2 d6c2  | d2c2 c2B2 c6B2  | 
w:   |   | 
c2B2 B2A2 A4 e4  | A12 z4  | |


